X: 1
T: Popcorn Behaviour
C: Version du whistle de Doolin
M: 4/4
L: 1/8
R: reel
K: Amin
|:a2 e=f ecAc|BABc BGAz|EAcA EAcA|BABc ABce|a2 e=f ecAc|BABc BGEz|EFAc dcAF|1EcdB A2 zg:|2 EcdB A2 zd||
%
eAAe fzzf|eAAe dAAd|ABcd edea|gecd efed|eAAe fzzf|^fAAf =fAAf|EFAc dcAF|1 EcdB A2 zd:|2 EcdB A2 zg||
